flaticon/technology/projector-1.svg

<svg xmlns="http://www.w3.org/2000/svg" width="32" height="32" viewBox="0 0 24 24">
    <path d="M 13.601562 6.800781 C 11.613281 6.800781 10 8.414062 10 10.398438 C 10 12.386719 11.613281 14 13.601562 14 C 15.585938 14 17.199219 12.386719 17.199219 10.398438 C 17.199219 8.414062 15.585938 6.800781 13.601562 6.800781 Z M 13.601562 13.199219 C 12.054688 13.199219 10.800781 11.945312 10.800781 10.398438 C 10.800781 8.855469 12.054688 7.601562 13.601562 7.601562 C 15.144531 7.601562 16.398438 8.855469 16.398438 10.398438 C 16.398438 11.945312 15.144531 13.199219 13.601562 13.199219 Z M 13.601562 13.199219"/>
    <path d="M 13.644531 5.199219 C 10.777344 5.199219 8.445312 7.53125 8.445312 10.398438 C 8.445312 13.265625 10.777344 15.601562 13.644531 15.601562 C 16.511719 15.601562 18.84375 13.265625 18.84375 10.398438 C 18.84375 7.53125 16.511719 5.199219 13.644531 5.199219 Z M 13.644531 14.800781 C 11.21875 14.800781 9.246094 12.824219 9.246094 10.398438 C 9.246094 7.972656 11.21875 6 13.644531 6 C 16.070312 6 18.042969 7.972656 18.042969 10.398438 C 18.042969 12.824219 16.070312 14.800781 13.644531 14.800781 Z M 13.644531 14.800781"/>
    <path d="M 22.945312 7.601562 L 20 7.601562 C 19.902344 7.601562 19.816406 7.550781 19.777344 7.472656 C 18.65625 5.121094 16.246094 3.601562 13.644531 3.601562 C 11.042969 3.601562 8.636719 5.121094 7.511719 7.472656 C 7.472656 7.550781 7.386719 7.601562 7.289062 7.601562 L 6.398438 7.601562 L 6.398438 7.039062 C 6.398438 6.6875 6.113281 6.398438 5.761719 6.398438 L 4.640625 6.398438 C 4.285156 6.398438 4 6.6875 4 7.039062 L 4 7.601562 L 3.601562 7.601562 L 3.601562 7.039062 C 3.601562 6.6875 3.3125 6.398438 2.960938 6.398438 L 1.839844 6.398438 C 1.488281 6.398438 1.199219 6.6875 1.199219 7.039062 L 1.199219 7.601562 L 1.054688 7.601562 C 0.472656 7.601562 0 8.074219 0 8.65625 L 0 19.347656 C 0 19.925781 0.472656 20.398438 1.054688 20.398438 L 22.945312 20.398438 C 23.527344 20.398438 24 19.925781 24 19.34375 L 24 8.65625 C 24 8.074219 23.527344 7.601562 22.945312 7.601562 Z M 4.800781 7.199219 L 5.601562 7.199219 L 5.601562 7.601562 L 4.800781 7.601562 Z M 2 7.199219 L 2.800781 7.199219 L 2.800781 7.601562 L 2 7.601562 Z M 23.199219 19.34375 C 23.199219 19.484375 23.085938 19.601562 22.945312 19.601562 L 1.054688 19.601562 C 0.914062 19.601562 0.800781 19.484375 0.800781 19.34375 L 0.800781 18 L 2.800781 18 C 3.019531 18 3.199219 17.820312 3.199219 17.601562 C 3.199219 17.378906 3.019531 17.199219 2.800781 17.199219 L 0.800781 17.199219 L 0.800781 15.601562 L 2.800781 15.601562 C 3.019531 15.601562 3.199219 15.421875 3.199219 15.199219 C 3.199219 14.980469 3.019531 14.800781 2.800781 14.800781 L 0.800781 14.800781 L 0.800781 13.199219 L 2.800781 13.199219 C 3.019531 13.199219 3.199219 13.019531 3.199219 12.800781 C 3.199219 12.578125 3.019531 12.398438 2.800781 12.398438 L 0.800781 12.398438 L 0.800781 10.800781 L 2.800781 10.800781 C 3.019531 10.800781 3.199219 10.621094 3.199219 10.398438 C 3.199219 10.179688 3.019531 10 2.800781 10 L 0.800781 10 L 0.800781 8.65625 C 0.800781 8.515625 0.914062 8.398438 1.054688 8.398438 L 7.289062 8.398438 C 7.691406 8.398438 8.0625 8.171875 8.230469 7.816406 C 9.222656 5.742188 11.347656 4.398438 13.644531 4.398438 C 15.941406 4.398438 18.066406 5.742188 19.058594 7.816406 C 19.226562 8.171875 19.597656 8.398438 20 8.398438 L 22.945312 8.398438 C 23.085938 8.398438 23.199219 8.515625 23.199219 8.65625 Z M 23.199219 19.34375"/>
    <path d="M20.800781 18.800781C20.800781 19.019531 20.621094 19.199219 20.398438 19.199219 20.179688 19.199219 20 19.019531 20 18.800781 20 18.578125 20.179688 18.398438 20.398438 18.398438 20.621094 18.398438 20.800781 18.578125 20.800781 18.800781zM22.398438 18C22.398438 18.222656 22.222656 18.398438 22 18.398438 21.777344 18.398438 21.601562 18.222656 21.601562 18 21.601562 17.777344 21.777344 17.601562 22 17.601562 22.222656 17.601562 22.398438 17.777344 22.398438 18zM20.800781 17.199219C20.800781 17.421875 20.621094 17.601562 20.398438 17.601562 20.179688 17.601562 20 17.421875 20 17.199219 20 16.980469 20.179688 16.800781 20.398438 16.800781 20.621094 16.800781 20.800781 16.980469 20.800781 17.199219zM20.800781 15.601562C20.800781 15.820312 20.621094 16 20.398438 16 20.179688 16 20 15.820312 20 15.601562 20 15.378906 20.179688 15.199219 20.398438 15.199219 20.621094 15.199219 20.800781 15.378906 20.800781 15.601562zM22.398438 16.398438C22.398438 16.621094 22.222656 16.800781 22 16.800781 21.777344 16.800781 21.601562 16.621094 21.601562 16.398438 21.601562 16.179688 21.777344 16 22 16 22.222656 16 22.398438 16.179688 22.398438 16.398438zM22.398438 14.800781C22.398438 15.019531 22.222656 15.199219 22 15.199219 21.777344 15.199219 21.601562 15.019531 21.601562 14.800781 21.601562 14.578125 21.777344 14.398438 22 14.398438 22.222656 14.398438 22.398438 14.578125 22.398438 14.800781zM20.800781 14C20.800781 14.222656 20.621094 14.398438 20.398438 14.398438 20.179688 14.398438 20 14.222656 20 14 20 13.777344 20.179688 13.601562 20.398438 13.601562 20.621094 13.601562 20.800781 13.777344 20.800781 14zM20.800781 12.398438C20.800781 12.621094 20.621094 12.800781 20.398438 12.800781 20.179688 12.800781 20 12.621094 20 12.398438 20 12.179688 20.179688 12 20.398438 12 20.621094 12 20.800781 12.179688 20.800781 12.398438zM22.398438 13.199219C22.398438 13.421875 22.222656 13.601562 22 13.601562 21.777344 13.601562 21.601562 13.421875 21.601562 13.199219 21.601562 12.980469 21.777344 12.800781 22 12.800781 22.222656 12.800781 22.398438 12.980469 22.398438 13.199219zM22.398438 11.601562C22.398438 11.820312 22.222656 12 22 12 21.777344 12 21.601562 11.820312 21.601562 11.601562 21.601562 11.378906 21.777344 11.199219 22 11.199219 22.222656 11.199219 22.398438 11.378906 22.398438 11.601562zM20.800781 10.800781C20.800781 11.019531 20.621094 11.199219 20.398438 11.199219 20.179688 11.199219 20 11.019531 20 10.800781 20 10.578125 20.179688 10.398438 20.398438 10.398438 20.621094 10.398438 20.800781 10.578125 20.800781 10.800781zM20.800781 9.199219C20.800781 9.421875 20.621094 9.601562 20.398438 9.601562 20.179688 9.601562 20 9.421875 20 9.199219 20 8.980469 20.179688 8.800781 20.398438 8.800781 20.621094 8.800781 20.800781 8.980469 20.800781 9.199219zM22.398438 10C22.398438 10.222656 22.222656 10.398438 22 10.398438 21.777344 10.398438 21.601562 10.222656 21.601562 10 21.601562 9.777344 21.777344 9.601562 22 9.601562 22.222656 9.601562 22.398438 9.777344 22.398438 10zM4.398438 18.800781L7.601562 18.800781 7.601562 16.398438 4.398438 16.398438zM5.199219 17.199219L6.800781 17.199219 6.800781 18 5.199219 18zM8.398438 18.800781L11.601562 18.800781 11.601562 16.398438 8.398438 16.398438zM9.199219 17.199219L10.800781 17.199219 10.800781 18 9.199219 18zM14.515625 11.714844C14.445312 11.792969 14.398438 11.894531 14.398438 12 14.398438 12.105469 14.445312 12.207031 14.515625 12.285156 14.59375 12.355469 14.695312 12.398438 14.800781 12.398438 14.902344 12.398438 15.007812 12.355469 15.085938 12.285156 15.15625 12.207031 15.199219 12.105469 15.199219 12 15.199219 11.894531 15.15625 11.792969 15.085938 11.714844 14.9375 11.566406 14.667969 11.566406 14.515625 11.714844zM12.515625 8.515625C12.445312 8.589844 12.398438 8.695312 12.398438 8.800781 12.398438 8.902344 12.445312 9.007812 12.515625 9.085938 12.59375 9.15625 12.695312 9.199219 12.800781 9.199219 12.902344 9.199219 13.007812 9.15625 13.085938 9.085938 13.15625 9.007812 13.199219 8.902344 13.199219 8.800781 13.199219 8.695312 13.15625 8.589844 13.085938 8.515625 12.9375 8.367188 12.667969 8.367188 12.515625 8.515625zM14 8.398438C13.777344 8.398438 13.601562 8.578125 13.601562 8.800781 13.601562 9.019531 13.777344 9.199219 14 9.199219 14.433594 9.199219 14.800781 9.75 14.800781 10.398438 14.800781 10.621094 14.980469 10.800781 15.199219 10.800781 15.421875 10.800781 15.601562 10.621094 15.601562 10.398438 15.601562 9.296875 14.882812 8.398438 14 8.398438zM14 8.398438"/>
</svg>

<svg xmlns="http://www.w3.org/2000/svg" width="32" height="32" viewBox="0 0 24 24">
    <path d="M13.602 6.8A3.602 3.602 0 0 0 10 10.399 3.603 3.603 0 0 0 13.602 14a3.602 3.602 0 0 0 3.597-3.602 3.6 3.6 0 0 0-3.597-3.597zm0 6.4a2.8 2.8 0 1 1 2.797-2.8 2.8 2.8 0 0 1-2.797 2.8zm0 0"/>
    <path d="M13.645 5.2a5.205 5.205 0 0 0-5.2 5.198 5.208 5.208 0 0 0 5.2 5.204c2.867 0 5.199-2.336 5.199-5.204 0-2.867-2.332-5.199-5.2-5.199zm0 9.6a4.406 4.406 0 0 1-4.399-4.402A4.403 4.403 0 0 1 13.645 6a4.403 4.403 0 0 1 4.398 4.398 4.406 4.406 0 0 1-4.398 4.403zm0 0"/>
    <path d="M22.945 7.602H20a.245.245 0 0 1-.223-.13 6.83 6.83 0 0 0-6.132-3.87 6.835 6.835 0 0 0-6.133 3.87.246.246 0 0 1-.223.13H6.4v-.563a.64.64 0 0 0-.637-.64H4.64c-.356 0-.641.288-.641.64v.563h-.398v-.563c0-.351-.29-.64-.641-.64H1.84c-.352 0-.64.288-.64.64v.563h-.145C.473 7.602 0 8.074 0 8.656v10.692c0 .578.473 1.05 1.055 1.05h21.89c.582 0 1.055-.472 1.055-1.054V8.656c0-.582-.473-1.054-1.055-1.054zM4.801 7.199h.8v.403h-.8zM2 7.2h.8v.403H2zm21.2 12.145c0 .14-.114.258-.255.258H1.055a.257.257 0 0 1-.254-.258V18h2a.4.4 0 0 0 0-.8h-2v-1.598h2a.401.401 0 0 0 0-.801h-2v-1.602h2a.4.4 0 0 0 0-.8h-2V10.8h2a.401.401 0 0 0 0-.801h-2V8.656c0-.14.113-.258.254-.258h6.234c.402 0 .774-.226.941-.582a6.036 6.036 0 0 1 5.415-3.418 6.036 6.036 0 0 1 5.414 3.418c.168.356.539.582.941.582h2.945c.14 0 .254.118.254.258zm0 0"/>
    <path d="M20.8 18.8a.401.401 0 1 1-.801-.004.401.401 0 0 1 .802.005zm0 0M22.398 18a.395.395 0 0 1-.398.398.395.395 0 0 1-.398-.398c0-.223.175-.398.398-.398.223 0 .398.175.398.398zm0 0M20.8 17.2a.401.401 0 1 1 0 0zm0 0M20.8 15.602a.401.401 0 1 1-.801-.005.401.401 0 0 1 .802.005zm0 0M22.398 16.398a.398.398 0 1 1-.796 0 .398.398 0 1 1 .796 0zm0 0M22.398 14.8a.398.398 0 1 1-.796 0 .398.398 0 1 1 .796 0zm0 0M20.8 14c0 .223-.179.398-.402.398a.398.398 0 1 1 0-.796c.223 0 .403.175.403.398zm0 0M20.8 12.398a.401.401 0 1 1 0 0zm0 0M22.398 13.2a.398.398 0 1 1-.796 0 .398.398 0 1 1 .796 0zm0 0M22.398 11.602a.398.398 0 1 1-.796 0 .398.398 0 1 1 .796 0zm0 0M20.8 10.8a.401.401 0 1 1-.801-.004.401.401 0 0 1 .802.005zm0 0M20.8 9.2a.401.401 0 1 1 0 0zm0 0M22.398 10a.395.395 0 0 1-.398.398.395.395 0 0 1-.398-.398c0-.223.175-.398.398-.398.223 0 .398.175.398.398zm0 0M4.398 18.8h3.204v-2.402H4.398zm.801-1.6h1.602v.8H5.199zm0 0M8.398 18.8h3.204v-2.402H8.398zm.801-1.6h1.602v.8H9.199zm0 0M14.516 11.715a.434.434 0 0 0-.118.285c0 .105.047.207.118.285a.43.43 0 0 0 .285.113.438.438 0 0 0 .285-.113.43.43 0 0 0 .113-.285.43.43 0 0 0-.113-.285.42.42 0 0 0-.57 0zm0 0M12.516 8.516a.426.426 0 0 0-.118.285c0 .101.047.207.118.285a.43.43 0 0 0 .285.113.438.438 0 0 0 .285-.113.438.438 0 0 0 .113-.285.423.423 0 0 0-.113-.285.42.42 0 0 0-.57 0zm0 0M14 8.398a.398.398 0 0 0-.398.403c0 .219.175.398.398.398.434 0 .8.551.8 1.2a.401.401 0 1 0 .802 0c0-1.102-.72-2-1.602-2zm0 0"/>
</svg>
